X: 823
T: The Whigs of Fyffe
N: Pub: J. Walsh, London, 1748
Z: 2012 John Chambers <jc:trillian.mit.edu>
S: 4: ACMV  http://archive.org/details/acompositemusicv01rugg p.3:23
M: C
L: 1/8
K: F
% - - - - - - - - - - - - - - - - - - - - - - - - -
V: 1
   f- | fFFA AGGf- | fFFA (f>ga)g | fFFA AGGA | FDE^C D3 :|
|: (e | f)cce gdd(e | f)cce (f>ga)g | fcce gdde | (f/g/a) Tg>e f3 :|
% - - - - - - - - - - - - - - - - - - - - - - - - -
V: 2 clef=bass middle=d
   F | f2f2 c2c2 | f2f2 F2F2 | f2f2 c2c2 | d2A2 d3 :|
|: c | f2f2 g2g2 f2f2 F2F2 | f2f2 g2g2 f2c2 f3 :|
% - - - - - - - - - - - - - - - - - - - - - - - - -
%%begintext align
%% The 1st Cu. foots to the 2d Wo. & hands round three .| the same to the 2d Man :| cross over two Cu. & turn your Partner .|.
%% lead up to the top foot it & cast off one Cu. :|:
%%endtext

%%sep 1 1 500
%%sep 1 1 500
